assets/coins/svg/YFI.svg

<svg width="64" height="64" viewBox="0 0 64 64" fill="none" xmlns="http://www.w3.org/2000/svg">
<g clip-path="url(#clip0_40_32834)">
<mask id="mask0_40_32834" style="mask-type:luminance" maskUnits="userSpaceOnUse" x="0" y="0" width="64" height="64">
<path d="M32 64C49.6731 64 64 49.6731 64 32C64 14.3269 49.6731 0 32 0C14.3269 0 0 14.3269 0 32C0 49.6731 14.3269 64 32 64Z" fill="white"/>
</mask>
<g mask="url(#mask0_40_32834)">
<path fill-rule="evenodd" clip-rule="evenodd" d="M64 32C63.9973 27.8054 63.171 23.6522 61.568 19.776C59.9432 15.8935 57.5979 12.3538 54.656 9.34399C51.6573 6.38832 48.1148 4.04114 44.224 2.43199C40.3486 0.826396 36.1948 0 32 0C27.8051 0 23.6514 0.826396 19.776 2.43199C15.8935 4.05679 12.3538 6.40211 9.34399 9.34399C6.38832 12.3426 4.04114 15.8852 2.43199 19.776C0.826396 23.6514 0 27.8051 0 32C0 36.1948 0.826396 40.3486 2.43199 44.224C4.05679 48.1065 6.40211 51.6462 9.34399 54.656C13.8278 59.1201 19.5319 62.1583 25.7384 63.3882C31.9449 64.6181 38.3766 63.9848 44.224 61.568C48.1065 59.9432 51.6462 57.5979 54.656 54.656C60.6512 48.6415 64.0122 40.4921 64 32Z" fill="url(#paint0_linear_40_32834)"/>
<path fill-rule="evenodd" clip-rule="evenodd" d="M30.336 17.536H33.664V46.464H30.336V17.536Z" fill="white"/>
<path fill-rule="evenodd" clip-rule="evenodd" d="M28.48 31.1679V27.7119C26.8567 26.9183 25.5504 25.5979 24.7742 23.9662C23.998 22.3345 23.7978 20.4879 24.2063 18.7277C24.6148 16.9676 25.6078 15.3979 27.0233 14.2748C28.4387 13.1517 30.1931 12.5416 32 12.5439C36.992 12.5439 40.576 16.1279 40.576 20.5439C40.5469 21.7349 40.2861 22.9088 39.808 23.9999L38.4 19.3919L35.584 20.2919L38.084 29.8279L47.812 26.2439L46.596 23.4279L42.944 24.6399C43.5288 23.3346 43.7922 21.9081 43.712 20.4799C43.712 14.2719 38.72 9.27994 31.936 9.27994C30.4641 9.27612 29.006 9.5632 27.6454 10.1247C26.2848 10.6862 25.0486 11.511 24.0079 12.5518C22.9671 13.5926 22.1423 14.8288 21.5808 16.1894C21.0193 17.5499 20.7322 19.0081 20.736 20.4799C20.7513 22.8465 21.506 25.149 22.8945 27.0654C24.2831 28.9819 26.236 30.4163 28.48 31.1679Z" fill="white"/>
<path fill-rule="evenodd" clip-rule="evenodd" d="M35.52 32.832V36.288C37.1433 37.0817 38.4496 38.4021 39.2258 40.0338C40.002 41.6655 40.2022 43.5121 39.7937 45.2723C39.3853 47.0324 38.3922 48.6021 36.9768 49.7252C35.5613 50.8483 33.8069 51.4584 32 51.456C27.008 51.456 23.424 47.872 23.424 43.456C23.4531 42.2651 23.7139 41.0912 24.192 40L25.6 44.608L28.416 43.708L25.916 34.172L16.192 37.76L17.408 40.576L21.056 39.36C20.4712 40.6654 20.2078 42.0919 20.288 43.52C20.288 49.728 25.28 54.72 32.064 54.72C33.5359 54.7239 34.994 54.4368 36.3546 53.8753C37.7152 53.3138 38.9514 52.4889 39.9921 51.4482C41.0329 50.4074 41.8578 49.1712 42.4193 47.8106C42.9808 46.45 43.2678 44.9919 43.264 43.52C43.2487 41.1535 42.494 38.851 41.1055 36.9345C39.7169 35.0181 37.764 33.5837 35.52 32.832Z" fill="white"/>
</g>
</g>
<defs>
<linearGradient id="paint0_linear_40_32834" x1="-4.13507e-07" y1="63.936" x2="64" y2="-0.0640263" gradientUnits="userSpaceOnUse">
<stop stop-color="#0077FC"/>
<stop offset="1" stop-color="#095EB5"/>
</linearGradient>
<clipPath id="clip0_40_32834">
<rect width="64" height="64" fill="white"/>
</clipPath>
</defs>
</svg>

<svg xmlns="http://www.w3.org/2000/svg" xmlns:xlink="http://www.w3.org/1999/xlink" width="64" height="64" viewBox="0 0 64 64"><defs><clipPath id="a"><circle cx="32" cy="32" r="32" fill="#f5f5f5"/></clipPath><linearGradient id="b" y1="0.999" x2="1" y2="-0.001" gradientUnits="objectBoundingBox"><stop offset="0" stop-color="#0077fc"/><stop offset="1" stop-color="#095eb5"/></linearGradient></defs><g clip-path="url(#a)"><path d="M64,32a32.04,32.04,0,0,0-2.432-12.224A33.336,33.336,0,0,0,54.656,9.344,32.62,32.62,0,0,0,44.224,2.432a31.937,31.937,0,0,0-24.448,0A33.336,33.336,0,0,0,9.344,9.344,32.62,32.62,0,0,0,2.432,19.776a31.937,31.937,0,0,0,0,24.448A33.336,33.336,0,0,0,9.344,54.656a32.073,32.073,0,0,0,34.88,6.912,33.336,33.336,0,0,0,10.432-6.912A32.027,32.027,0,0,0,64,32Z" fill-rule="evenodd" fill="url(#b)"/><path d="M30.336,17.536h3.328V46.464H30.336Z" fill="#fff" fill-rule="evenodd"/><path d="M28.48,31.168V27.712A7.99,7.99,0,0,1,32,12.544c4.992,0,8.576,3.584,8.576,8A9.169,9.169,0,0,1,39.808,24L38.4,19.392l-2.816.9,2.5,9.536,9.728-3.584-1.216-2.816L42.944,24.64a8.948,8.948,0,0,0,.768-4.16c0-6.208-4.992-11.2-11.776-11.2a11.171,11.171,0,0,0-11.2,11.2A11.349,11.349,0,0,0,28.48,31.168Z" fill="#fff" fill-rule="evenodd"/><path d="M35.52,32.832v3.456A7.99,7.99,0,0,1,32,51.456c-4.992,0-8.576-3.584-8.576-8A9.169,9.169,0,0,1,24.192,40L25.6,44.608l2.816-.9-2.5-9.536L16.192,37.76l1.216,2.816,3.648-1.216a8.948,8.948,0,0,0-.768,4.16c0,6.208,4.992,11.2,11.776,11.2a11.171,11.171,0,0,0,11.2-11.2A11.349,11.349,0,0,0,35.52,32.832Z" fill="#fff" fill-rule="evenodd"/></g></svg>
